!!!Melodie: eigene
!!!Typ: Lied
**kern	**silbe	**silbe	**silbe	**silbe	**silbe	**silbe
*clefG2	*lang:DE	*lang:DE	*lang:DE	*lang:DE	*lang:DE	*lang:DE
*k[b-]	*	*	*	*	*	*
*M2/2	*	*	*	*	*	*
4f	In	Mag	Kün#	Werft	Frie#	O
4f	dem	der	#det	das	#de	so
4cc	Her#	Feind	eu#	stol#	hö#	freu
4a	#ren	mit	#re	#ze	#her	dich
=	=	=	=	=	=	=
4dd	freu#	Fin#	Lin#	Sor#	als	in
4dd	#et	#ster#	#dig#	#gen	Ver#	dem
2cc	euch,	#nis	#keit	fort,	#nunft,	Herr’n,
=	=	=	=	=	=	=
4.dd	freut	eu#	al#	bit#	Licht	Kir#
8cc	euch	#ren	#len	#tet	von	#che,
4b-	al#	Schritt	Au#	Gott	höch#	al#
4a	#le#	um#	#gen,	mit	#ster	#le#
=	=	=	=	=	=	=
2g	#we#	#hül#	Oh#	Dan#	Zin#	#zei#
4f	#ge.	#len,	#ren.	#ken.	#ne,	#ten.
4r	%	%	%	%	%	%
=	=	=	=	=	=	=
4g	Der	seid	Kei#	Sieh,	wird	Musst
4g	am	nur	#ner	es	dir	du
4a	Kreuz	um	bannt	leuch#	heut’	‘dul#
4f	den	den	den	#tet	und	#den
=	=	=	=	=	=	=
4b-	Sieg	Herr’n	Sie#	sei#	je#	Kreuz
4a	er#	ge#	#ger	#ne	#der	und
2g	#rang,	#schart,	mehr,	Gnad’	Frist	Not,
=	=	=	=	=	=	=
4g	der	des#	Chris#	ü#	hü#	Got#
4g	ins	#sen	#tus	#ber	#ten	#tes
4a	Reich	Heil	mit	eu#	ganz	Sohn
4g	der	und	dem	#rem	in	hebt
=	=	=	=	=	=	=
4a	Him#	Ge#	lich#	schma#	Je#	aus
4b	#mel	#gen#	#ten	#len	#sus	dem
4cc	drang,	#wart	Heer	Pfad,	Christ	Tod
4f	ist	all’	er#	führt	das	sein
=	=	=	=	=	=	=
4.dd	nah	Stund’	#scheint	euch	Herz	Volk
8cc	auf	euch	schon	durch	und	in
4b-	eu#	kann	vor	al#	al#	E#
4a	#rem	er#	den	#le	#le	#wig#
=	=	=	=	=	=	=
2g	Ste#	#fül#	To#	Schran#	Sin#	#kei#
4f	#ge.	#len.	#ren.	#ken.	#ne.	#ten.
4r	%	%	%	%	%	%
==	==	==	==	==	==	==
*-	*-	*-	*-	*-	*-	*-
